X: 10251
T: Lancers Part 3 (Jig)
B: K\"ohler's Violin Repository, v.1, 1885 p.25 #1
F: http://www.archive.org/details/klersviolinrepos01edin
Z: 2011 John Chambers <jc:trillian.mit.edu>
M: 3/4
L: 1/8
K: D
(uF/G/) |\
A>BA A>BA | (d2A) AFG | A>BA A>BA | (e2A) AFG |\
A>BA A>BA | (d2A) (e2A) | f>ed A>dc | (.d2.D) D2 ||
z |\
f>ed f>ed | (.e2.A) A3 | f>ed f>ed | (.g2.e) e3 |\
f>ed f>ed | g>fe Ha2ug | f>ed A>dc | (.d2.D) "_D.C."D2 |]

%%sep 2 1 500

